X:1
T:Mars van de hardlopers
O:traditional Schoonderbuken-Flanders
R:march
M:6/8
L:1/8
Q:3/8=110
K:G
|: d3 e2d | B3 c2B | A2G A2B | G3 B2c | d3 e2d | B3 c2B | A2G A2B | G6 |
g3 f2e | d3 c2B | A2G A2B | G6 | g3 f2e | d3 c2B | A2G A2B | [1,2,..G2d B2d | G2d B2c :| [10 G6 |]
